X:1
T:Sanctuary (Dykes), 87.87 D
T:Sanctuary (Dykes), 87.87 D
T:John Bacchus Dykes, 1871
T:Public Domain Courtesy of the Cyber Hymnal™
C:John Bacchus Dykes, 1871
Z:Public Domain
Z:Courtesy of the Cyber Hymnal™
%%score ( 1 2 ) ( 3 4 )
L:1/8
Q:1/4=108
M:none
K:Ab
V:1 treble 
V:2 treble 
V:3 bass 
V:4 bass 
V:1
 E2 [CA]2 | [Cc]3 [CB] [DA]2 [DF]2 | [DE]2 [CE]2 E2 [DE]2 | [CE]2 [Cc]2 [=DB]2 [DA]2 | %4
 [EB]4 [GB]2 [_Gc]2 | [Fd]2 [Fd]2 [FA]2 [_FB]2 | [Ec]2 c2 [Fc]2 [^Fc]2 | %7
 [Gc]2 [EGe]2 [FG=d]2 [FG=B]2 | [EGc]4 [Ge]2 [Gd]2 | [Ac]2 [EA]2 [=Ec]2 [EB]2 | %10
 [FA]2 [CF]2 [CA]2 [CA]2 | [FA]2 [Fd]2 [_Ge]2 (de) | [Ff]4 [Ff]2 [_Ge]2 | [Fd]3 [Fc] [FB]2 [FA]2 | %14
 G2 [CA]2 [FA]2 [_FA]2 | [EA]2 [CEc]2 [DEB]2 [DEG]2 | [CEA]4 |] %17
V:2
 E2 x2 | x8 | x4 (B,C) x2 | x8 | x8 | x8 | x2 (E=E) x4 | x8 | x8 | x8 | x8 | x6 _G2 | x8 | x8 | %14
 (ED) x6 | x8 | x4 |] %17
V:3
 [A,C]2 [E,A,]2 | [A,,E,]3 [A,,=E,] [A,,F,-]2 (F,G,) | [A,,A,]2 [C,A,]2 (G,A,) [E,B,]2 | %3
 A,2 A,2 [F,-A,]2 B,2 | [E,G,]4 [E,G,]2 [E,=A,]2 | [B,,B,]2 B,2 [D,F,]2 [D,G,]2 | %6
 [A,,A,]2 [A,,A,]2 [A,C]2 [A,C]2 | [G,E]2 [G,C]2 [G,=B,]2 [G,=D]2 | C4 [B,D]2 [B,D]2 | %9
 [A,E]2 [A,C]2 [G,B,]2 [G,B,]2 | [F,C]2 [F,A,]2 [E,_G,]2 [E,G,]2 | [D,A,]2 [D,A,]2 [A,,C]2 (B,C) | %12
 [B,,D]4 [D,A,]2 [D,=A,]2 | [D,B,]3 [D,C] [D,D]2 [=D,C]2 | [E,B,]2 [F,A,]2 [D,A,B,]2 [=D,A,B,]2 | %15
 [E,A,C]2 [E,A,]2 [E,G,]2 [E,B,]2 | [A,,A,]4 |] %17
V:4
 x4 | x6 A,,2 | x4 E,2 x2 | A,2 A,2 (F,_F,) x2 | x8 | x2 (B,,C,) x4 | x8 | x8 | C4 x4 | x8 | x8 | %11
 x6 A,,2 | x8 | x8 | x8 | x8 | x4 |] %17

